brandFactory_export/1.Light/PC_1Light.svg

<?xml version="1.0" encoding="UTF-8"?>
<svg width="24px" height="24px" viewBox="0 0 24 24" version="1.1" xmlns="http://www.w3.org/2000/svg" xmlns:xlink="http://www.w3.org/1999/xlink">
    <title>1.Light/PC_1Light</title>
    <g id="Symbols" stroke="none" stroke-width="1" fill="none" fill-rule="evenodd">
        <g id="1.Light/PC_1Light" fill="#5CB615" fill-rule="nonzero">
            <path d="M22.0436975,5.00672269 C22.6386555,5.00672269 23.6369748,5.29243697 23.6369748,7.21848739 L23.6403361,15.907563 C23.6403361,17.8336134 22.6420168,18.1193277 22.0470588,18.1193277 L19.307563,18.1193277 C18.7159664,18.1193277 17.7277311,17.8336134 17.7277311,15.907563 L17.7243697,7.21848739 C17.7243697,5.29579832 18.712605,5.00672269 19.3042017,5.00672269 L22.0436975,5.00672269 Z M14.2756303,5.00672269 C15.1966387,5.00672269 15.9058824,5.25882353 16.3831933,5.75630252 C16.8436975,6.23697479 17.0789916,6.93277311 17.0789916,7.82689076 L17.0789916,13.2991597 C17.0789916,15.1310924 16.0840336,16.1428571 14.2756303,16.1428571 L11.1031681,16.1437227 L12.3851681,17.4447227 L16.7462185,17.4436975 C16.9310924,17.4436975 17.0789916,17.5915966 17.0789916,17.7764706 C17.0789916,17.9613445 16.9310924,18.1092437 16.7462185,18.1092437 L12.305924,18.1117329 C12.2881152,18.1145773 12.270108,18.1159664 12.2521008,18.1159664 L12.2051681,18.1107227 L0.352941176,18.1159664 C0.168067227,18.1159664 0.0201680672,17.9680672 0.0201680672,17.7831933 C0.0201680672,17.5983193 0.168067227,17.4504202 0.352941176,17.4504202 L4.60616807,17.4477227 L5.87616807,16.1447227 L2.82352941,16.1462185 C1.01512605,16.1462185 0.0201680672,15.1378151 0.0201680672,13.302521 L0.0201680672,7.83361345 C0.0201680672,6.9394958 0.255462185,6.24369748 0.715966387,5.76302521 C1.19327731,5.26554622 1.90252101,5.01344538 2.82352941,5.01344538 L14.2756303,5.00672269 Z M10.1741681,16.1437227 L6.80516807,16.1447227 L5.53616807,17.4477227 L11.4521681,17.4447227 L10.1915966,16.1663866 L10.1741681,16.1437227 Z M22.0712399,5.67910296 L19.3042017,5.6789916 C19.0554622,5.6789916 18.3966387,5.6789916 18.3966387,7.21848739 L18.4,15.907563 C18.4,17.3829132 19.0050654,17.4443861 19.2744121,17.4469475 L22.0470588,17.4470588 C22.2756303,17.4470588 22.9680672,17.4470588 22.9680672,15.907563 L22.9613445,7.21848739 C22.9613445,5.74313725 22.3254085,5.68166433 22.0712399,5.67910296 Z M14.2756303,5.67563025 L2.82352941,5.68235294 C2.0907563,5.68235294 1.54285714,5.86722689 1.19327731,6.22689076 C0.853781513,6.57983193 0.682352941,7.1210084 0.682352941,7.83361345 L0.682352941,13.3058824 C0.682352941,14.7714286 1.38151261,15.4840336 2.82016807,15.4840336 L14.2722689,15.4773109 C15.7109244,15.4773109 16.410084,14.7647059 16.410084,13.2991597 L16.410084,7.82689076 C16.410084,7.11092437 16.2386555,6.5697479 15.8991597,6.22016807 C15.5563025,5.85714286 15.0084034,5.67563025 14.2756303,5.67563025 Z" id="PC_1Light"></path>
        </g>
    </g>
</svg>

<svg width="24" height="24" viewBox="0 0 24 24" xmlns="http://www.w3.org/2000/svg"><path d="M22.044 5.007c.595 0 1.593.285 1.593 2.211l.003 8.69c0 1.926-.998 2.211-1.593 2.211h-2.74c-.591 0-1.58-.285-1.58-2.211l-.003-8.69c0-1.922.989-2.211 1.58-2.211h2.74zm-7.768 0c.92 0 1.63.252 2.107.75.46.48.696 1.176.696 2.07v5.472c0 1.832-.995 2.844-2.803 2.844h-3.173l1.282 1.302 4.361-.001c.185 0 .333.148.333.332a.331.331 0 01-.333.333l-4.44.003a.341.341 0 01-.054.004l-.047-.005-11.852.005a.331.331 0 01-.333-.333c0-.185.148-.333.333-.333l4.253-.002 1.27-1.303-3.052.001c-1.809 0-2.804-1.008-2.804-2.843v-5.47c0-.894.235-1.59.696-2.07.477-.497 1.187-.75 2.108-.75l11.452-.006zm-4.102 11.137H6.805l-1.269 1.304 5.916-.003-1.26-1.279-.018-.022zM22.071 5.679h-2.767c-.249 0-.907 0-.907 1.54l.003 8.689c0 1.475.605 1.536.874 1.539h2.773c.229 0 .921 0 .921-1.54l-.007-8.689c0-1.475-.636-1.536-.89-1.539zm-7.795-.003l-11.452.006c-.733 0-1.281.185-1.63.545-.34.353-.512.894-.512 1.607v5.472c0 1.465.7 2.178 2.138 2.178l11.452-.007c1.439 0 2.138-.712 2.138-2.178V7.827c0-.716-.171-1.257-.51-1.607-.344-.363-.892-.544-1.624-.544z" fill="#5CB615" fill-rule="nonzero"/></svg>
